X:1
T:Capaillin Langstern  "arr. Kent Hiestand"
M:6/8
L:1/8
Q:80
C:'Langstern Pony' or 'Saddle the Pony'
S:Jig
K:HP
g[ | \
{a}fed{g}cA{d}A | \
{g}eA{d}A{d}cA{d}A | \
{g}fed{g}cA{d}A |
{g}BG{d}G{d}Bcd | \
{g}fed{g}cA{d}A | \
{g}eA{d}A{d}cA{d}A |
{g}faf{a}gfe | \
{g}dBG{d}Bcd | \
{g}fed{g}cA{d}A |
{g}cAc{g}ec{d}A | \
{g}fed{g}cA{d}A | \
{g}BGB{g}dBG |
{g}fed{g}cA{d}A | \
{g}cAc{g}efg | \
{a}faf{a}gfe |
{g}dBG{d}Bcd|]
{g}ce{A}e{g}df{e}f | \
{g}ce{A}e{g}ec{d}A |
{g}ce{A}e{g}df{e}f | \
{g}dBG{d}Bcd | \
{g}ce{A}e{g}df{e}f |
{g}ce{A}e{g}efg | \
{a}faf{a}gfe | \
{g}dBG{d}Bcd :|
